img/RoundArrow.svg

<svg width="50" height="43" viewBox="0 0 50 43" fill="none" xmlns="http://www.w3.org/2000/svg">
<path d="M40.4206 21.5802L39.0899 23.8693L41.5209 25.2823L42.7854 22.7709L40.4206 21.5802ZM21.7103 37.5128C12.8217 37.5128 5.64768 30.3621 5.64768 21.5802H0.352319C0.352319 33.3214 9.93205 42.8081 21.7103 42.8081V37.5128ZM5.64768 21.5802C5.64768 12.7983 12.8217 5.64768 21.7103 5.64768V0.352319C9.93205 0.352319 0.352319 9.83899 0.352319 21.5802H5.64768ZM21.7103 5.64768C30.5989 5.64768 37.7729 12.7983 37.7729 21.5802H43.0682C43.0682 9.83899 33.4885 0.352319 21.7103 0.352319V5.64768ZM41.7512 19.2912L27.2772 10.8775L24.616 15.4556L39.0899 23.8693L41.7512 19.2912ZM42.7854 22.7709L49.4929 9.44925L44.7632 7.06786L38.0557 20.3895L42.7854 22.7709Z" fill="#C62222"/>
</svg>

<svg width="50" height="43" fill="none" xmlns="http://www.w3.org/2000/svg"><path d="m40.4 21.6-1.3 2.3 2.4 1.4 1.3-2.5-2.4-1.2Zm-18.7 16a16 16 0 0 1-16-16H.3c0 11.7 9.5 21.2 21.3 21.2v-5.3Zm-16-16a16 16 0 0 1 16-16V.4A21.3 21.3 0 0 0 .4 21.6h5.2Zm16-16a16 16 0 0 1 16 16h5.4C43 9.8 33.5.4 21.7.4v5.2Zm20 13.7-14.4-8.4-2.7 4.6 14.5 8.4 2.7-4.6Zm1 3.5 6.8-13.4-4.7-2.3L38 20.4l4.7 2.4Z" fill="#C62222"/></svg>
